rospo-light/16x16/actions/gnome-stock-mail-fwd.svg

<svg height="16" viewBox="0 0 16 16" width="16" xmlns="http://www.w3.org/2000/svg"><path d="m9 1.5v2.5h-2.5c-3 0-5 2.1265-5 5.25 0 3.25 4 4.75 4 4.75s-1.8751-2.6525-1.4375-4c .3659-1.1266 1.5726-2 2.9375-2h2v2.5l6.46875-4.5z" fill="#5c616c"/></svg>

<?xml version="1.0" encoding="UTF-8" standalone="no"?>
<svg xmlns="http://www.w3.org/2000/svg" width="22" height="22" viewBox="0 0 22 22">
 <defs>
  <style type="text/css" id="current-color-scheme">
   .ColorScheme-Text { color:#5c616c; } .ColorScheme-Highlight { color:#5294e2; }
  </style>
 </defs>
 <path style="fill:currentColor;opacity:1" class="ColorScheme-Text" transform="translate(3 3)" d="M 9 1.5 L 9 4 L 6.5 4 C 3.5 4 1.5 6.1265 1.5 9.25 C 1.5 12.5 5.5 14 5.5 14 C 5.5 14 3.6249 11.3475 4.0625 10 C 4.4284 8.8734 5.6351 8 7 8 L 9 8 L 9 10.5 L 15.46875 6 L 9 1.5 z"/>
</svg>
